X: 9
T: The Goodnatured Man
R: hornpipe
M: 4/4
L: 1/8
K: Gmaj
d2 | g2bg d2gd | BcdB G2AB | c2ec A2 cA | FGAB cdef|
g2bg d2gd | BcdB G2AB | cedc BAGF | Az G2 G2 :|
Bc | dBdB gfgf | ecec agag | fdfd gfgb | (3(aba) (3(gfe) d2 ef |
g2bg d2gd | BcdB G2AB | cedc BAGF | Az G2 G2 :|


Tune 312	Setting 26025

